casedrop/img/search/icons/heart.svg

<svg width="19" height="15" viewBox="0 0 19 15" fill="none" xmlns="http://www.w3.org/2000/svg">
<path fill-rule="evenodd" clip-rule="evenodd" d="M4.4526 1.50205C3.13923 2.10239 2.17706 3.53033 2.17706 5.2331C2.17706 6.9727 2.88895 8.31355 3.90946 9.46273C4.75055 10.4098 5.76873 11.1947 6.76171 11.9603C6.99755 12.1421 7.23197 12.3229 7.46227 12.5044C7.87871 12.8327 8.25017 13.1208 8.60825 13.33C8.96648 13.5394 9.25488 13.635 9.49998 13.635C9.74508 13.635 10.0335 13.5394 10.3917 13.33C10.7498 13.1208 11.1212 12.8327 11.5377 12.5044C11.768 12.3229 12.0024 12.1421 12.2383 11.9603C13.2313 11.1947 14.2494 10.4098 15.0905 9.46273C16.111 8.31355 16.8229 6.9727 16.8229 5.2331C16.8229 3.53033 15.8607 2.10239 14.5473 1.50205C13.2714 0.918818 11.557 1.07327 9.9278 2.76598C9.81585 2.88227 9.6614 2.94798 9.49998 2.94798C9.33856 2.94798 9.1841 2.88227 9.07216 2.76598C7.44296 1.07327 5.72853 0.918818 4.4526 1.50205ZM9.49998 1.52946C7.66961 -0.108163 5.61999 -0.337248 3.95891 0.422032C2.20454 1.22396 0.989563 3.08605 0.989563 5.2331C0.989563 7.34328 1.86871 8.95313 3.02155 10.2512C3.94475 11.2908 5.07474 12.1609 6.07272 12.9293C6.29895 13.1034 6.51839 13.2725 6.7271 13.437C7.13262 13.7567 7.56795 14.0975 8.00911 14.3553C8.45015 14.613 8.95341 14.8225 9.49998 14.8225C10.0465 14.8225 10.5498 14.613 10.9908 14.3553C11.432 14.0975 11.8673 13.7567 12.2729 13.437C12.4816 13.2725 12.701 13.1034 12.9273 12.9293C13.9252 12.1609 15.0552 11.2908 15.9784 10.2512C17.1313 8.95313 18.0104 7.34328 18.0104 5.2331C18.0104 3.08605 16.7954 1.22396 15.041 0.422032C13.3799 -0.337248 11.3304 -0.108163 9.49998 1.52946Z" fill="#7C839D"/>
</svg>

<svg width="19" height="15" fill="none" xmlns="http://www.w3.org/2000/svg"><path fill-rule="evenodd" clip-rule="evenodd" d="M4.453 1.502c-1.314.6-2.276 2.028-2.276 3.731 0 1.74.712 3.08 1.732 4.23.842.947 1.86 1.732 2.853 2.497.236.182.47.363.7.544.417.329.788.617 1.146.826.358.21.647.305.892.305s.534-.096.892-.305c.358-.21.73-.497 1.146-.826.23-.181.464-.362.7-.544.993-.765 2.011-1.55 2.853-2.497 1.02-1.15 1.732-2.49 1.732-4.23 0-1.703-.962-3.13-2.276-3.73-1.276-.584-2.99-.43-4.62 1.263a.594.594 0 01-.855 0C7.443 1.073 5.73.919 4.452 1.502zm5.047.027C7.67-.108 5.62-.337 3.959.422 2.205 1.224.989 3.086.989 5.233c0 2.11.88 3.72 2.033 5.018.923 1.04 2.053 1.91 3.05 2.678.227.174.446.344.655.508.406.32.84.66 1.282.918.441.258.944.467 1.491.467.546 0 1.05-.209 1.49-.467.442-.258.877-.598 1.283-.918.209-.164.428-.334.654-.508.998-.768 2.128-1.638 3.051-2.678 1.153-1.298 2.032-2.908 2.032-5.018 0-2.147-1.215-4.009-2.969-4.811-1.661-.76-3.71-.53-5.541 1.107z" fill="#7C839D"/></svg>
